logo/jspm.svg

<?xml version="1.0" encoding="UTF-8"?>
<svg width="256px" height="298px" viewBox="0 0 256 298" version="1.1" xmlns="http://www.w3.org/2000/svg" xmlns:xlink="http://www.w3.org/1999/xlink" preserveAspectRatio="xMidYMid">
    <g>
        <polygon fill="#FEEA5F" points="210.74066 74.864668 127.883281 122.741921 44.9589934 74.8797764 127.873568 26.9938898"></polygon>
        <polygon fill="#E0CC41" points="104.249828 258.239798 22.0107834 210.774618 22.0107834 115.121688 104.249828 162.568535"></polygon>
        <polygon fill="#EFDB50" points="150.050689 161.648756 234.903969 112.660661 234.903969 211.846821 150.050689 260.818142"></polygon>
        <path d="M50.4350236,74.8789921 L127.881071,119.579213 L205.26463,74.8648819 L127.872,30.1565984 C110.779801,40.0277165 84.9674751,54.9351811 50.4350236,74.8789921 Z M127.658331,0 L255.987906,74.6985827 L194.749306,122.741921 L126.985071,148.646299 L63.420271,127.884353 L0,74.6885039 L127.658331,0 Z" fill="#C3C2C2"></path>
        <path d="M154.239093,253.505008 L230.715565,209.368189 L230.715565,119.973795 L154.239093,164.125732 L154.239093,253.505008 Z M126.928731,148.646299 L255.987906,74.8679055 L255.987906,224.205102 L126.928731,297.911911 L120.381865,224.205102 L126.928731,148.646299 Z" fill="#B3B3B3"></path>
        <path d="M101.558526,164.146696 L24.702085,119.805279 L24.702085,209.197657 L101.558526,253.556208 L101.558526,164.146696 Z M1.42108547e-14,74.8679055 L126.985172,148.646602 L126.928731,297.910728 L1.42108547e-14,224.770016 L1.42108547e-14,74.8679055 Z" fill="#A5A5A4"></path>
    </g>
</svg>

<svg viewBox="0 0 256 298" xmlns="http://www.w3.org/2000/svg"><path fill="#FEEA5F" d="M210.74 74.86l-82.86 47.87 -82.93-47.87 82.91-47.89Z"/><path fill="#E0CC41" d="M104.24 258.23L22 210.76l0-95.66 82.23 47.44Z"/><path fill="#EFDB50" d="M150.05 161.64l84.85-48.99 0 99.18 -84.86 48.97Z"/><path fill="#C3C2C2" d="M50.43 74.87l77.44 44.7 77.38-44.72 -77.4-44.71c-17.1 9.87-42.91 24.77-77.44 44.72ZM127.65-.01l128.32 74.69 -61.24 48.04 -67.77 25.9 -63.57-20.77 -63.43-53.2L127.61-.04Z"/><path fill="#B3B3B3" d="M154.23 253.5l76.47-44.14v-89.4l-76.48 44.15v89.37Zm-27.32-104.86l129.05-73.78v149.33l-129.06 73.7 -6.55-73.71 6.54-75.56Z"/><path fill="#A5A5A4" d="M101.55 164.14l-76.86-44.35v89.39l76.85 44.35v-89.41ZM-.01 74.86l126.98 73.77 -.06 149.26L-.02 224.74V74.83Z"/></svg>
